-----BEGIN PGP PUBLIC KEY BLOCK-----

mQINBGpmT8MBEADHH6IGS8yBOljRZWkxp015E7IensUCUoUbQnXg8zNnHN8aaA8j
YBn/FID9iwe0heb6nhIT2IWfBu2FPmWus6tsLSvjbqw1iUUyX6vkfX1bdGofdr6z
TNb0T1BtoRQ0Wd011FLuXC0Esgzby1pfq5Hs0arMrwHbOkaKquhDzoGBMT+DaGyc
tTtS3c+RFYEGMf+Ct1/cYncTtlOrERsbHX35I/EW3fc3AKgi/5YMa3a4DMk5Wd9a
4x5+xC106vn86R0+sZM+QbyoYGG67Q3WpPvbRkEVtzePf5/gTkAdjPOadtPhvrAb
AfwWNSl7ePIkAQK8COFFG2cDU9Z7Hh2LfJ5+bXuIaGvcZjbB54YudrBVOMOeLGTe
UkaWTF01bOGy3dZJCcl2xfdkxwg2VpfhlJA0oATsAIQIhn0Knpk8iH8g0KppFm9f
Q0TK2qdJjMNn4lLb4CxI75BmeIipXRPTtYC9djUSPqzs8XWoDytf14k2ce4tufhC
/HTMrCmD6jpW+uBxls4yNcKElVQyPm7I0Gq5Kq5QMTTAQTaO6ClksHK/fhDByT+L
sgpxDiwuj1UKR9ifkWqEsRY9j1u/1M062yW1tAvD/L+cWbqh6LnvAQnVRRgc9Rqb
pWiHbIpZNeti94WXc4NCdXKOYknn9mprLixZnoSCA2bYdbskpFADUKu0vwARAQAB
tDtTVUNPIEFQVCBSZXBvc2l0b3J5IFNpZ25pbmcgS2V5IDxzdWNvLWFwdEBtaWNi
dXIuZ2l0aHViLmlvPokCTgQTAQoAOBYhBLDkrTsQ/dLWbLgRUiVC7oYjXvpnBQJq
Zk/DAhsDBQsJCAcCBhUKCQgLAgQWAgMBAh4BAheAAAoJECVC7oYjXvpndboQAJQD
B9qwjMHFqbpV5OA47YaY0GN5beBLb9ZbNfU1OvwBACTCrSL7TMzLYlPy/1o73GcF
+czJ30hiCGK0fn3EdYl6yJwpuTv6z3jP4EapOpIT+ctOtOyopknwXim0lwodv1D6
xYtayhSpg9iRdvHocRpa6OtnmycwUoD0Jaatqaj7kgbePdVJygv9L33DC7j/80jw
TXtzz2GjzNeiWQ3083/C8zfleBp1AX8AyzAccXjiT7M2w2of9n2pOn+2n2/I2lmF
KGhOivSJS66lIKpN0RL4CwZJLPsxlcOdZ1gY3V3R1QIH2YcaTeJ/ZFw4s5AS+BaZ
s3BPefMXyb2bzxyVANk9nocArc23oJPDBmxSejn0jjQn7iXlfsVnr+ofK9i3oDEy
nd/SlWkXeF4YzlZQmHcMvrOmE1iuA7U62ptxpmEThXrMM1qrqvGvWWk0Qb86fjmY
J6oQBtVSGEjppsIKv8YdsbvAX2PC4VOTV8DrdP/wrnjr7wF+0CkfKamrEOBg7jx9
9c4+jkhNM/qr3EnPFpJXHgBSBm3D/vvszXF3DNQ90ZTYVMkT5U2Cs5K8YuvUPP/F
HGPD9fW/4BRz76Xh/gtLCYsCWINS62UE2EqHRJFdWGE/irwDd8J8rCdQZ3fg34HR
hw9MX2Juue7SbDkNhRfOfUd/7JhajcI/kaT+MpJF
=08li
-----END PGP PUBLIC KEY BLOCK-----
